X:1
T: E  Major Samuel Holyoke, 1803
T:Isaac Watts, 1709 (Hymn 29, Book 2)        86. 86. (C. M.)
T:Rhone Transcribed from The Columbian Repository, 1803.
%%score [ 1 2 3 ]
L:1/8
Q:1/4=90
M:4/4
K:Eb
V:1 treble nm="Treble" snm="Tr."
V:2 treble-8 nm="Tenor" snm="T."
V:3 bass nm="Bass" snm="B."
V:1
 G2 GG E>F G>A | B2 =A2 B3 F | G2 G2 AG FE | (E2{FE} D2) z2 B2 | c>d e2 e3 e | e>f g2 d3 d | %6
 ed e/d/c/d/ BA GF | G4 z4 | G2 GG A>G G2 | F2 F2 G3 E | A2 A2 G2 F2 | E4 z2 D2 | DF EG (F A2) F | %13
 G2 A2 B3 c | BG Ge dc B=A | B6 D2 | F2 =A2 B2 B2 | Be df (e B2) d | eB ce dc B=A | %19
 B4 !fermata!z2 G2 | G2 AG/F/ E>F G2 | G2 AG/F/ E3 D | E2 GF E2 D2 | E4 z2 A2 | F2 A2 G2 E2 | %25
 A2 GF E3 F | G2 E2 GF ED | E4 z4 | G2 GG G2 c2 | =B2 G2 A3 =A | B>=A B>c d>e f2 | (e2 d4) de/f/ | %32
 eG FG/A/ G2 FG/A/ | GF ED E3 F | G2 FG A2 G2 | F6 FG/A/ | G2 FG/A/ G2 FG/A/ | GF ED E3 F | %38
 G2 FG A2 G2 | F6 F2 | GA Bc BA GF | G4 z4 |] %42
V:2
"^1. Je – sus,  with  all   thy saints a – bove    My  tongue would bear  her        part,         Would sound aloud  thy  sa – ving love,  And" B2 BB c>d e2 | %1
 d2 c2 B3 B | Be ec cB AG | (G2{AG} F2) z2 G2 | A2 B2 c3 B | c>d e2 f3 f | %6
"^sing    thy           blee – ding  heart.  2. Blest be the Lamb, my  dearest  Lord, Who bought me with his blood, And quenched his Father's" ga g/f/e/f/ gf ed | %7
 e4 z4 | B2 BB c>B e>B | c2 d2 e3 B | ce dc B2 A2 | G4 z2 B2 | B2 ce (d f2) d | %13
"^flaming sword  In   his   own  vi – tal    flood:      And quenched his Father's fla – ming  sword   In  his   own   vi  –   tal      flood:  3. The" e2 f2 g3 a | %14
 ge eg fe dc | d6 B2 | B2 ce (d f2) d | eg fa g3 f | ge eg fe dc | B4 !fermata!z2 B2 | %20
"^Lamb  that   freed  my       cap – tive   soul  From Satan's  heavy chains,  And sent the lion down to howl  Where hell and horror reigns." B2 cB/A/ G>A B>e | %21
 e>B cB/A/ G3 F | G2 c2 c2 =B2 | c4 z2 c2 | B2 d2 e2 B2 | c2 BA G3 d | e2 B2 BA GF | G4 z4 | %28
"^4. All   glory  to  the  dy–ing  Lamb, And  ne  –  ver–cea–sing  praise, While    an  –  gels      live   to       know his name,  Or saints  to feel his" B2 BB B2 e2 | %29
 d2 e_d c3 c | d>c d>e f>g a2 | (g2 f4) fg/a/ | ge de/f/ eB AB/c/ | BA GF G3 A | Be de f2 e2 | %35
"^grace.    While     an – gels      live     to           know  his  name,   Or   saints  to   feel   his  grace,    Or   saints   to     feel     his    grace." d6 de/f/ | %36
 e2 de/f/ eB AB/c/ | BA GF G3 A | Be de f2 e2 | d6 d2 | ed ea gf ed | e4 z4 |] %42
V:3
 E,2 E,E, A,2 E,2 | F,2 F,2 B,,3 D, | E,2 C,2 A,,3 =A,, | B,,4 z2 E,2 | E,2 E,2 A,3 G, | %5
 F,2 E,2 B,3 B,, | E,F, G,A, B,2 B,,2 | E,4 z4 | E,2 E,E, E,2 E,2 | A,2 A,2 G,3 G, | %10
 F,2 F,2 B,2 B,,2 | E,4 z4 | z8 | z8 | z8 | z4 z2 B,,2 | D,2 F,2 B,2 A,2 | G,2 B,2 E2 B,2 | %18
 G,2 E,2 F,2 F,2 | B,,4 !fermata!z2 E,2 | E,2 E,2 E,2 E,2 | E,2 E,2 E,2 B,,2 | E,2 E,F, G,2 G,2 | %23
 C,4 z2 C,2 | D,2 B,,2 E,2 G,2 | A,2 B,2 E,2 B,,2 | E,2 G,2 B,2 B,,2 | E,4 z4 | E,2 E,E, E,2 C,2 | %29
 G,2 E,2 A,3 F, | B,2 B,2 B,2 B,2 | B,6 z2 | z8 | z8 | z8 | z4 z2 B,,2 | %36
 E,2"^________________________________________________________\nEdited by B. C. Johnston, 2016\n   1. Top and middle staffs exchanged.\n   2. Measure 21, All Parts: rest changed from half-rest to quarter-rest.\n   3. Measure 22, \nTenor\n: first two notes originally dotted-quarter and eighth, changed to dotted-eighth and sixteenth.\n" B,,2 E,2 A,2 | %37
 B,2 B,,2 E,3 A, | G,2 B,E, A,2 =A,2 | B,6 A,2 | G,F, G,A, B,2 B,,2 | E,4 z4 |] %42

